/* XPM */
static char *wall_stone[] = {
/* columns rows colors chars-per-pixel */
"64 64 29 1 ",
"  c #0D0712",
". c #160A20",
"X c #1E0F2E",
"o c #26143C",
"O c #301A4A",
"+ c #392159",
"@ c #432868",
"# c #4D3077",
"$ c #563786",
"% c #603F96",
"& c #6B47A6",
"* c #7550B6",
"= c #8058C6",
"- c #8A60D6",
"; c #9568E5",
": c #A170F5",
"> c #AC7BFF",
", c #B886FF",
"< c #C491FF",
"1 c #D09CFF",
"2 c #DAA7FF",
"3 c #E3B3FF",
"4 c #ECBEFF",
"5 c #F3C9FF",
"6 c #F8D4FF",
"7 c #FCE0FF",
"8 c #FFE9FF",
"9 c #FFF2FF",
"0 c #FFFFFF",
"XoOoo+XX+++++ooooooooooOOOOOO++++o+o+++oOX+XXXOXO++++ooo+ooooXXX",
"O;:*;<214578721:=##@@&*>::&;:>2722622>>;=#&$X@%*;12575244;;;===+",
"+<22550855500885111&%==244221:26000002213-&#@%,1445900054<34:>;+",
"o$:458082244512211-##:1444265800090559024;&+#38999947009944881&X",
"o&28545::>442222441@#164242:28909895255243#@:575954<4984444248>X",
"X:44144>333>>>>>661@@1992<2><4455909822111O#,111434><2,,12>:45:+",
"+;2>>3565:>:;>24741##1492<<22>:985982221:-O$-:,::>432,:<>42242;+",
"X;4>><3<432::>>>111##;11422421:25221>>223*+%-:3,><:=-:2342;;121+",
"X*233:,;3><>3<43;31#&1;1:::14:112422:341,*X#&,334<<=;:=:241;:2:X",
"O%-,,,242:::<>4411=##11;-==-21242>>1,:343*X@&--:122,23>:>>2;*:;+",
"XO%:::,3>33>-=3431-=@111:=-442::2:>23-;44%O@#-*-:-:,21>21:>:;:=X",
"O#$%;:::;;<>:,>:141;@&1;--:4:111>::>>;:1-#XX#%#%::>;:::1>;;:32&+",
"O-;=*-,-*:::;33:11;=X@1;&-441::1;=:>2>:&#OOoOO@@$*1;:::-=;:32=+X",
"+23-%*;32,:3,>,:;1;=OO=;---:1:#->:>::;;%##&**%&&@+*%;::-;&;;=$+X",
"+1<;%-243,13,:::;--##O&;=&##*::->>::;&#@=6674244-#+#*=;=;=&@+O+X",
"O*,;%-1,,;-:<:;,=-###O#*###+O##&$$####o&453447782-*+X+=&#@OO$$&+",
"X$;:;;;;:,,1,**:;=#@OooOO+#@+OO+OOOoO+#168864<<,152#XO+%%-:<11,+",
"o+$*-*%;*;,:,:-*$#oo#%*1<::---*4421:#-3<<2:::---;44@#*244085897+",
"Xo@@#$=;=;,;;:*#O##$:<48671554588075*204,:;:22:-24:+&4500868877+",
"ooXX##$***--&%#XO&:342<41411,::,1515%24--:<2442;,4<@;5884444<<5+",
"X##XOXO@#O+OOOXX%,567313344--;:<14:-%332:3,:43:2:2&+24443<;::--o",
"X#%&=&*;;;--*$OX$,4<2:--233:>2441:=#<4,::::<,,:;;*##,,1::;;<3,:o",
"O$15998768643:*O#*:::--33>>233331;##44,,2::443332%##-*,;>>=<4<1+",
"O:45974,25443,*@;,::-2:,:::>3<::*#+17755<::42::::%@%;%-2:;=33<:o",
"+<908<:;;:<2<1;@;>:*243>:---:<::-#+14,41-342:--->;+*:=2422<3;;;+",
"X:455>>341;:2<:+-33::143::--:;:,1*O-4-->2233:-:;,;+*:*;:;::343:o",
"O:3,::334:<2<,<+11,-=::;;:::--:34-O=:-&%,:,343;-;;+;,1;**;;:3<;o",
"O=::::<<332:,;=O*::::44:-<2:,:,:>%+###&:4,-:,43,:&@1-:;:**11::&o",
"O;;;<2:::3<:;-&O%,<21<3,::<<;--::#X@##&=2,132,:-;@O;1>:*&=:>;:=+",
"O;-&;33<;>:<<;*X#%*--::>2<::&-::-#XOOO+#;=;::;*#$+X&;<;-;22:;;;X",
"X&-$*;11;<<:;$+XO#%***==*-;;-;:&#O####O@+@##$**@XoO$$;:<<;>::2:X",
"X+#$;=;=&&**$+XOO#@@++++OO@O###@OO#-;--=#+O++@+O#+O++&**:==:>2>+",
"o@@@&%=%=-&@@%--1<<1144==&@@OoooX#1545531;111-11&1%@oo@#1%&1*1=X",
"O%&@Oo@oOOOO#-76997999977941#Ooo#142:21111222221221#@oX@%111&1&X",
"o&----==@O#%-1424644174446761&@o#21:-1::111122112772=#oo@$1=&1OX",
"O1799741@O#&1--=-111441-1<111=%o=1::;;;111;12111222211@o@#@%@OoX",
"@7964447&O%11:1444--11-1-1-1=:=O;;;;--142211:-11221199$XoO@Oo%%o",
"O111--<<%@=411<:14112--<1--111,@;1-=11442--;-1;4211122@o1111111O",
"o11=&1<2@&14:1----;<414>-:1-44-#*1113;;21&*&115421111&@11100011 ",
"o=--11<1@-11&====&=1=->1:--1:1=@#;111-;111-1111111%=&@o&1161111 ",
"o-:1411;@-:1#-42=1>1=-==--11-:=@#;141-=11;111;1;&111&oo1111111*X",
"o-:11-1;O#1:<24-&11<11-1-:1<::,@#*;21--;--=1--1-1=11#o#11111*11o",
"o1;1-:1-O#1241--&&--1::2241:===@@#=-=;1-&&;1-&-1&&==#O=1111*%1%X",
"o;:11;:1O#<11-=-1-=--1-24411%-=OX###==1;-;-=-=;11===#O%1111&111o",
"o=11--:;O#=-==111>:-=:1:<-1:--#oX@*===1-=&==;-*=%&%#OO1=#1=*#=1 ",
"o-1=&;:#o@#-1->1<-:=%:-==11=&#oo.O*#**##@O#&#&#@OO@ooo@#**11&11X",
"o;-==1*@OO@&&11:::::->:-1--#@oo@##X@@OO@@##O@@@#===%  o#1&1&1&1 ",
"o=#===@oOO@Oo@%%===::=:-%%&#oo@=;1-;;=;1*#=&&-1487761%#@#&*&*1* ",
"o#%-=#o@#%1%@@OO@@@%%@#O@@OO@%:1112486764246426870676=&oo@#%=-%o",
"o@%$oO#%16767611=@OOO@@oOOoO=61>1146664146424466811111;%@O@@%=@o",
"oOooO&176979976671=;1---&#@o-4<1114111116611242:=&&==;1=*@OoO@Oo",
"o@#&*19616164111167461-421=@-211;=41;:1121;1;==-11=1-%111=**&%@o",
"o#&-%11141-111==111>1111121oO%==:11121;12;1--=-1111=-11==&%=1*@o",
"o=11%1-111--==1=;1-11111221oo=111;:111;-1;;--124111--1111*11111o",
"o111*=;11&====112;=11=11<1<&o-2=1;=:;:-:1:;;241;11111--11-1=1=&o",
"o1121#*;=&$&%==12<1<11-11=1-O-<1=1:1===-;:;22111=1==#&=-&1--11&o",
"o1111==%1=-1111-1--111=%&=1&O&-1=11211&&=-11;-*&&11=1%$=*1411=&o",
"o=1==1=#=111111;1---11111&%=o#1-:1;=112111111-;;11-11111@-1=&=*o",
"o&&-11=%1141--&&=-111111=&&&O-11=1==;=;141-111;11;1#1&1%@1%&#1*o",
"o&1=111%=-1==;=11=&11#&1---#o#=1===111-1;--=&*-1;1-&=1==o===;-%o",
"o;1==-=%=-1-*----======--=&@o@#=&-=1;===&1=1-1--=-=-1&$#o==-1=%o",
"o=---1=&%#&1;;---1=&&--==%#  o@%**#%%#%-*1---====;1-%*#@o#=1===o",
"o$==1=#@%@%-&==%$$&#$$%#@%&   @#&###%@&=&#%##&=*&%@@@#@oo@=-&##o",
"Xooooooo o oo oo  oo   o o     o o  o ooo o  ooo o oXXoXXooooooo"
};
