/* XPM */
static char *wall_ice[] = {
/* columns rows colors chars-per-pixel */
"64 64 29 1 ",
"  c #0A0F16",
". c #0B121A",
"X c #0E1620",
"o c #10202C",
"O c #132A38",
"+ c #163446",
"@ c #193C50",
"# c #1D465B",
"$ c #215066",
"% c #255A72",
"& c #2A6380",
"* c #2F6D8D",
"= c #347699",
"- c #3A80A8",
"; c #418AB5",
": c #4694C2",
"> c #4B9DCF",
", c #50A7DC",
"< c #57B0E7",
"1 c #5EB9F2",
"2 c #6AC1F6",
"3 c #76C9F8",
"4 c #82D0FA",
"5 c #8ED7FB",
"6 c #9ADEFD",
"7 c #A6E4FE",
"8 c #B2EAFF",
"9 c #BEF0FF",
"0 c #CCF5FF",
/* pixels */
"XoOoOoo+XX+++++ooOOOOOOOOOOO+ +o+o+++oOX+XXXOXO+++ooo+ooooXXXOO",
"O;:*;<2345687423:=#$%%&&*>>:&;:>3733633>>;=#%$X@%*;23576355;;;==+",
"+<33561966611996322&%==355332:37111113324-&#@%,2556A11165<45:>:;+",
"o$:569193355623222-&##:25553769112A176035;&+#49AAA68011A559932&X",
"o&39656::>553333552@#275353:39A11A96366354#@:686A65<5A95555359>X",
"X:55355>444>>>>>772@@2AA3<3><556611A933222O#,222545><3,,23>:56:+",
"+;3>>4676:>:;>35852##25A3<<33>:A6A963332:-O$-:,::>543,:<>53353;+",
"X;5>><4<5433::::221##;22533532:36332>>334*+%-:4,><:=-:3453;;232+",
"X*344:,,4><>4<54;42#&2;2:::25:223533:452,*X#&,445<<=;:=:352;:3:X",
"O%-,,,353:::<>5522=##22;-==-32353>>2,:454*X@&--:233,34>:>>3;*:;+",
"XO%:::,4>44>-=4542-=@222:=-553::3:>34-;55%O@#-*-:-:,32>32:>:;:=X",
"O#$%;:::;;<>:,>:252;@&2;--:5:222>::>>;:2-#XX#%#%::>;:::2>;;:43&+",
"O-;=*-,-*:::;44:22;=X@2;&-552::2;=:>3>:&#OOoOO@@$*2;:::-=;:43=+X",
"+34-%*;43,:4,>,:;2;=OO=;---:2:#->:>::;;%##&**%&&@+*%;::-;&;;=$+X",
"+2<;%-354,24,:::;--##O&;=&##*::->>::;&#@=7785355-#+#*=;=;=&@+O+X",
"O*,;%-2,,;-:<:;,=-###O#*###+O##&$$####o&564558893-*+X+=&#@OO$$&+",
"X$;:;;;;:,,2,**:;=#@OooOO+#@+OO+OOOoO+#279975<<,263#XO+%%-:<22,+",
"o+$*-*%;*;,:,:-*$#oo#%*2<::---*5532:#-4<<3:::---;55@#*3551979A8+",
"Xo@@#$=;=;,;;:*#O##$:<59782667799186*315,:;:33:-35:+&5611979988+",
"ooXX##$***--&%#XO&:453<52522,::,2626%35--:<3553;,5<@;6995555<<6+",
"X##XOXO@#O+OOOXX%,678423455--;<:25:-%443:4,:54:3:3&+35554<;::--o",
"X#%&=&*;;;--*$OX$,5<3:--344:>3552:=#<5,::::<,,:;;*##,,2::;;<4,:o",
"O$16A99869754:*O#*:::--44>>344442;##55,,3::554443%##-*,;>>=<5<2+",
"O:56A85,36554,*@;,::-3:,:::>4<::*#+28866<::53::::%@%;%-3:;=44<:o",
"+<A19<:;;:<3<2;@;>:*354>:---:<::-#+25,52-453:--->;+*:=3533<4;;;+",
"X:566>>452;:3<:+-44::254::--:;:,2*O-5-->3444:-:;,;+*:*;:;::454:o",
"O:4,::445:<3<,<+22,-=::;;:::--:45-O=:-&%,:,454;-;;+;,2;**;;:4<;o",
"O=::::<<443:,;=O*::::55:-<3:,:,:>%+###&:5,-:,54,:&@2-:;:**22::&o",
"O;;;<3:::4<:;-&O%,<32<4,::<<;--::#X@##&=3,243,:-;@O;2>:*&=:>;:=+",
"O;-&;44<;>:<<;*X#%*--::>3<::&-::-#XOOO+#;=;::;*#$+X&;<;-;33:;;;X",
"X&-$*;22;<<:;$+XO#%***==*-;;-;:&#O####O@+@##$**@XoO$$;:<<;>::3:X",
"X+#$;=;=&&**$+XOO#@@++++OO@O###@OO#-;--=#+O++@+O#+O++&**:==:>3>+",
"o@@@&%=%=-&@@%--2<<2255==&@@OoooX#2656642;222-22&2%@oo@#2%&2*2=X",
"O%&@Oo@oOOOO#-87AA8AAA887A52#Ooo#253:32222333332332#@oX@%222&2&X",
"o&----==@O#%-2535755285558872&@o#32:-2::222233223883=#oo@$2=&2OX",
"O28A8852@O#&2--=-222552-2<222=%o=2::;;;222;23222333322@o@#@%@OoX",
"@A875558&O%22:2555--22-2-2-2=:=O;;;;--255332:-223322AA$XoO@Oo%%o",
"O222--<<%@=522<:25223--<2--222,@;2-=22553--;-2;5322233@o2222222O",
"o22=&2<3@&25:2----;<525>-:2-55-#*2224;;32&*&226532222&@22211122 ",
"o=--22<2@-22&====&=2=->2:--2:2=@#;222-;222-2222222%=&@o&2272222 ",
"o-:2522;@-:2#-53=2>2=-==--22-:=@#;252-=22;222;2;&222&oo2222222*X",
"o-:22-2;O#2:<35-&22<22-2-:2<::,@#*;32--;--=2--2-2=22#o#22222*22o",
"o2;2-:2-O#2352--&&--2::3352:===@@#=-=;2-&&;2-&-2&&==#O=2222*%2%X",
"o;:22;:2O#<22-=-2-=--2-35522%-=OX###==2;-;-=-=;22===#O%2222&222o",
"o=22--:;O#=-==222>:-=:2:<-2:--#oX@*===2-=&==;-*=%&%#OO2=#2=*#=2 ",
"o-2=&;:#o@#-2->2<-:=%:-==22=&#oo.O*#**##@O#&#&#@OO@ooo@#**22&22X",
"o;-==2*@OO@&&22:::::->:-2--#@oo@##X@@OO@@##O@@@#===%  o#2&2&2&2 ",
"o=#===@oOO@Oo@%%===::=:-%%&#oo@=;2-;;=;2*#=&&-2588872%#@#&*&*2* ",
"o#%-=#o@#%2%@@OO@@@%%@#O@@OO@%:2223588875357537991782;&@o@#%=-%o",
"o@%$oO#%27878722=@OOO@@oOOoO=72>2257775267535577922222;%@O@@%=@o",
"oOooO&287A8A887782=;2---&#@o-5<2225222227722353:=&&==;2=*@OoO@Oo",
"o@#&*2A72727222277872-532=@-322;=52;:2232;2;==-22=2-%2222=**&%@o",
"o#&-%22252-222==222>2222232oO%==:22232;23;2--=-2222=-22==&%=2*@o",
"o=22%2-222--==2=;2-22222332oo=222;:222;-2;;--235222--2222*22222o",
"o222*=;22&====223;=22=22<2<&o-3=2;=:;:-:2:;;352;22222--22-2=2=&o",
"o2232#*;=&$&%==223<2<22-22=2-O-<2=2:2===-;:;33222=2==#&=-&2--22o",
"o2222==%2=-2222-2--222=%&=2&O&-2=22322&&=-22;-*&&22=2%$=*2522=&o",
"o=2==2=#=222222;2---22222&%=o#2-:2;=223222222-;;22-22222@-2=&=*o",
"o&&-22=%2252--&&=-222222=&&&O-22=2==;=;252-222;22;2#2&2%@2%&#2*o",
"o&2=222%=-2==;=22=&22#&2---#o#=2===222-2;--=&*-2;2-&=2==o===;-%o",
"o;2==-=%=-2-*----======--=&@o@#=&-=2;===&2=2-2--=-=-2&$#o==-2=%o",
"o=---2=&%#&2;;---2=&&--==%#  o@%**#%%#%-*2---====;2-%*#@o#=2===o",
"o$==2=#@%@%-&==%$$&#$$%#@%&   @#&###%@&=&#%##&=*&%@@@#@oo@=-&##o",
"Xooooooo o oo oo  oo   o o     o o  o ooo o  ooo o oXXoXXooooooo"
};
