/* XPM – wall_ice3 recolor variant 2 (turchese / verde ghiaccio) */
static char *wall_ice3_recolor2[] = {
/* columns rows colors chars-per-pixel */
"64 64 29 1 ",
"  c #04110E",
". c #092019",
"X c #0D2C22",
"o c #11382C",
"O c #174737",
"+ c #1D5743",
"@ c #22674F",
"# c #28765B",
"$ c #2E8667",
"% c #359673",
"& c #3CA67F",
"* c #43B68B",
"= c #4AC697",
"- c #52D3A3",
"; c #5ADFAF",
": c #63EBBA",
"> c #6BF5C5",
", c #73FFD0",
"< c #7AFFD8",
"1 c #82FFE0",
"2 c #8AFFE7",
"3 c #93FFED",
"4 c #9CFFF2",
"5 c #A6FFF6",
"6 c #B0FFFA",
"7 c #BBFFFD",
"8 c #C6FFFF",
"9 c #D1FFFF",
"0 c #E0FFFF",
/* pixels (unchanged) */
"XoOoOoo+XX+++++oooOOOOOOOO++++oo+o++OoOX+XXXOXO++++ooo+ooooXXXOOO",
"O;:*;<1223465212:=#$%%&&*>>:&;:2532423>>;=#%$X@%*;12464244;;;==+",
"+<23440866621995221&%==244322:36010002313-&#@%,1445901154<34:>;+",
"o$:447182344513221-##:1444275800090669034;&+#389AAA68009944761&X",
"o&28445::>544333552@#265452:29A087A6245244#@:565A64<49A5545248>X",
"X:44344>333>>>>>771@@1AA4<4><455590A733222O#,112544><3,,13>:45:+",
"+;3>>3566:>:;>24551##1493<<33>:A769A32231:-O$-:,::>544,:<>43252;+",
"X;5>><3<4433::::221##;11522532:36322>>224*+%-:4,><:=-:3443;;232+",
"X*344:,;3><>4<54;42#&2;1:::25:112533:452,*X#&,445<<=;:=:352;:3:X",
"O%-,,,353:::<>5522=##22;-==-21253>>2,:454*X@&--:233,34>:>>3;*:;+",
"XO%:::,4>44>-=4542-=@222:=-553::3:>34-;55%O@#-*-:-:,32>32:>:;:=X",
"O#$%;:::;;<>:,>:252;@&2;--:5:222;:::>;:2-#XX#%#%::>;:::2>;;:43&+",
"O-;=*-,-*:::;44:22;=X@2;&-552::2;=:>3>:&#OOoOO@@$*2;:::-=;:43=+X",
"+34-%*;43,:4,>,:;2;=OO=;---:2:#->:>::;;%##&**%&&@+*%;::-;&;;=$+X",
"+2<;%-354,24,:::;--##O&;=&##*::->>::;&#@=6674245-#+#*=;=;=&@+O+X",
"O*,;%-2,,;-:<:;,=-###O#*###+O##&$$####o&563447782-*+X+=&#@OO$$&+",
"X$;:;;;;:,,2,**:;=#@OooOO+#@+OO+OOOoO+#179875<<,162#XO+%%-:<22,+",
"o+$*-*%;*;,:,:-*$#oo#%*2<::---*5532:#-4<<3:::---;55@#*3551979A8+",
"Xo@@#$=;=;,;;:*#O##$:<59782667799186*315,:;:33:-35:+&5611979988+",
"ooXX##$***--&%#XO&:453<52522,::,2626%35--:<3553;,5<@;6995555<<6+",
"X##XOXO@#O+OOOXX%,678423455--;<:25:-%443:4,:54:3:3&+35554<;::--o",
"X#%&=&*;;;--*$OX$,5<3:--344:>3552:=#<5,::::<,,:;;*##,,2::;;<4,:o",
"O$26A99869754:*O#*:::--44>>344442;##55,,3::554443%##-*,;>>=<5<2+",
"O:56874,36554,*@;,::-3:,:::>4<::*#+28866<::53::::%@%;%-3:;=44<:o",
"+<908<:;;:<3<2;@;>:*354>:---:<::-#+25,52-453:--->;+*:=3533<4;;;+",
"X:566>>452;:3<:+-44::254::--:;:,2*O-5-->3444:-:;,;+*:*;:;::454:o",
"O:4,::445:<3<,<+22,-=::;;:::--:45-O=:-&%,:,454;-;;+;,2;**;;:4<;o",
"O=::::<<443:,;=O*::::55:-<3:,:,:>%+###&:5,-:,54,:&@2-:;:**22::&o",
"O;;;<3:::4<:;-&O%,<32<4,::<<;--::#X@##&=3,243,:-;@O;2>:*&=:>;:=+",
"O;-&;44<;>:<<;*X#%*--::>3<::&-::-#XOOO+#;=;::;*#$+X&;<;-;33:;;;X",
"X&-$*;22;<<:;$+XO#%***==*-;;-;:&#O####O@+@##$**@XoO$$;:<<;>::3:X",
"X+#$;=;=&&**$+XOO#@@++++OO@O###@OO#-;--=#+O++@+O#+O++&**:==:>3>+",
"o@@@&%=%=-&@@%--2<<1144==&@@OoooX#1545531;111-11&1%@oo@#1%&1*1=X",
"O%&@Oo@oOOOO#-76997999977941#Ooo#142:21111222221221#@oX@%111&1&X",
"o&----==@O#%-1424644174446761&@o#21:-1::111122112772=#oo@$1=&1OX",
"O1799741@O#&1--=-111441-1<111=%o=1::;;;111;12111222211@o@#@%@OoX",
"@7964447&O%11:1444--11-1-1-1=:=O;;;;--142211:-11221199$XoO@Oo%%o",
"O111--<<%@=411<:14112--<1--111,@;1-=11442--;-1;4211122@o1111111O",
"o11=&1<2@&14:1----;<414>-:1-44-#*1113;;21&*&115421111&@11100011 ",
"o=--11<1@-11&====&=1=->1:--1:1=@#;111-;111-1111111%=&@o&1161111 ",
"o-:1411;@-:1#-42=1>1=-==--11-:=@#;141-=11;111;1;&111&oo1111111*X",
"o-:11-1;O#1:<24-&11<11-1-:1<::,@#*;21--;--=1--1-1=11#o#11111*11o",
"o1;1-:1-O#1241--&&--1::2241:===@@#=-=;1-&&;1-&-1&&==#O=1111*%1%X",
"o;:11;:1O#<11-=-1-=--1-24411%-=OX###==1;-;-=-=;11===#O%1111&111o",
"o=11--:;O#=-==111>:-=:1:<-1:--#oX@*===1-=&==;-*=%&%#OO1=#1=*#=1 ",
"o-1=&;:#o@#-1->1<-:=%:-==11=&#oo.O*#**##@O#&#&#@OO@ooo@#**11&11X",
"o;-==1*@OO@&&11:::::->:-1--#@oo@##X@@OO@@##O@@@#===%  o#1&1&1&1 ",
"o=#===@oOO@Oo@%%===::=:-%%&#oo@=;1-;;=;1*#=&&-1487761%#@#&*&*1* ",
"o#%-=#o@#%1%@@OO@@@%%@#O@@OO@%:1112486764246426870676=&oo@#%=-%o",
"o@%$oO#%16767611=@OOO@@oOOoO=61>1146664146424466811111;%@O@@%=@o",
"oOooO&176979976671=;1---&#@o-4<1114111116611242:=&&==;1=*@OoO@Oo",
"o@#&*19616164111167461-421=@-211;=41;:1121;1;==-11=1-%111=**&%@o",
"o#&-%11141-111==111>1111121oO%==:11121;12;1--=-1111=-11==&%=1*@o",
"o=11%1-111--==1=;1-11111221oo=111;:111;-1;;--124111--1111*11111o",
"o111*=;11&====112;=11=11<1<&o-2=1;=:;:-:1:;;241;11111--11-1=1=&o",
"o1121#*;=&$&%==12<1<11-11=1-O-<1=1:1===-;:;22111=1==#&=-&1--11&o",
"o1111==%1=-1111-1--111=%&=1&O&-1=11211&&=-11;-*&&11=1%$=*1411=&o",
"o=1==1=#=111111;1---11111&%=o#1-:1;=112111111-;;11-11111@-1=&=*o",
"o&&-11=%1141--&&=-111111=&&&O-11=1==;=;141-111;11;1#1&1%@1%&#1*o",
"o&1=111%=-1==;=11=&11#&1---#o#=1===111-1;--=&*-1;1-&=1==o===;-%o",
"o;1==-=%=-1-*----======--=&@o@#=&-=1;===&1=1-1--=-=-1&$#o==-1=%o",
"o=---1=&%#&1;;---1=&&--==%#  o@%**#%%#%-*1---====;1-%*#@o#=1===o",
"o$==1=#@%@%-&==%$$&#$$%#@%&   @#&###%@&=&#%##&=*&%@@@#@oo@=-&##o",
"Xooooooo o oo oo  oo   o o     o o  o ooo o  ooo o oXXoXXooooooo"
};
